**harm	**harte	**silbe	**rhyme	**timestamp	**phrase	**leadinstrument	**kern
*M4/4	*M4/4	*	*	*	*	*	*
*	*	*	*	*	*	*	*
*	*	*	*	*	*	*	*
*E:	*E:	*	*	*	*	*	*E:
*	*	*	*	*	*	*	*
*	*	*	*	*	*	*	*
1r;	N	.	.	0	.	r	1r;
=1	=1	=1	=1	=1	=1	=1	=1
*>Letter>A	*>Letter>A	*>Letter>A	*>Letter>A	*>Letter>A	*>Letter>A	*>Letter>A	*>Letter>A
*>Label>Intro	*>Label>Intro	*>Label>Intro	*>Label>Intro	*>Label>Intro	*>Label>Intro	*>Label>Intro	*>Label>Intro
1r	N	.	.	0.302	newline	drums	1r
=2	=2	=2	=2	=2	=2	=2	=2
*>Letter>B	*>Letter>B	*>Letter>B	*>Letter>B	*>Letter>B	*>Letter>B	*>Letter>B	*>Letter>B
*>Label>Interlude	*>Label>Interlude	*>Label>Interlude	*>Label>Interlude	*>Label>Interlude	*>Label>Interlude	*>Label>Interlude	*>Label>Interlude
1I	E:5	.	.	1.976	newline	guitar	1E 1g# 1b
=3	=3	=3	=3	=3	=3	=3	=3
2.IV	A:5	.	.	3.758	.	guitar	1A 1cc# 1ee
4I	E:5	.	.	5.095	.	guitar	4E 4g# 4b
=4	=4	=4	=4	=4	=4	=4	=4
1I	E:5	.	.	5.54	.	guitar	1E 1g# 1b
=5	=5	=5	=5	=5	=5	=5	=5
2I	E:5	.	.	7.322	.	guitar	1E 1g# 1b
4-III	G:5	.	.	8.213	.	guitar	4G 4b 4dd
4IV	A:5	.	.	8.659	.	guitar	4A 4cc# 4ee
=6	=6	=6	=6	=6	=6	=6	=6
1I	E:5	.	.	9.104	newline	guitar	1E 1g# 1b
=7	=7	=7	=7	=7	=7	=7	=7
2.IV	A:5	.	.	10.877	.	guitar	1A 1cc# 1ee
4I	E:5	.	.	12.207	.	guitar	4E 4g# 4b
=8	=8	=8	=8	=8	=8	=8	=8
1I	E:5	.	.	12.65	newline	guitar	1E 1g# 1b
=9	=9	=9	=9	=9	=9	=9	=9
2I	E:5	.	.	14.426	.	guitar	1E 1g# 1b
4-III	G:5	.	.	15.313	.	guitar	4G 4b 4dd
4IV	A:5	.	.	15.757	.	guitar	4A 4cc# 4ee
=10	=10	=10	=10	=10	=10	=10	=10
2IV	A:5	.	.	16.201	.	guitar	1A 1cc# 1ee
2I	E:5	.	.	17.089	.	guitar	2E 2g# 2b
=11	=11	=11	=11	=11	=11	=11	=11
1I	E:5	.	.	17.977	.	guitar	1E 1g# 1b
=12	=12	=12	=12	=12	=12	=12	=12
1I	E:5	.	.	19.753	newline	guitar	1E 1g# 1b
=13	=13	=13	=13	=13	=13	=13	=13
1I	E:5	.	.	21.534	.	guitar	1E 1g# 1b
=14	=14	=14	=14	=14	=14	=14	=14
1I	E:5	.	.	23.316	.	guitar	1E 1g# 1b
=15	=15	=15	=15	=15	=15	=15	=15
1I	E:5	.	.	25.097	.	guitar	1E 1g# 1b
.	.	.	.	.	.	.	.
.	.	One	.	.	.	.	.
=16	=16	=16	=16	=16	=16	=16	=16
*>Letter>C	*>Letter>C	*>Letter>C	*>Letter>C	*>Letter>C	*>Letter>C	*>Letter>C	*>Letter>C
*>Label>Verse	*>Label>Verse	*>Label>Verse	*>Label>Verse	*>Label>Verse	*>Label>Verse	*>Label>Verse	*>Label>Verse
1I	E:5	foot	.	26.879	newline	voice	1E 1g# 1b
.	.	on	.	.	.	.	.
.	.	the	.	.	.	.	.
.	.	brake,	A	.	.	.	.
.	.	.	.	.	.	.	.
.	.	.	.	.	.	.	.
.	.	and	.	.	.	.	.
=17	=17	=17	=17	=17	=17	=17	=17
1I	E:5	one	.	28.66	.	voice	1E 1g# 1b
.	.	on	.	.	.	.	.
.	.	the	.	.	.	.	.
.	.	gas	B	.	.	.	.
.	.	.	.	.	.	.	.
.	.	hey!	A	.	.	.	.
=18	=18	=18	=18	=18	=18	=18	=18
2I	E:5	.	.	30.441	newline	guitar	1E 1g# 1b
2-III	G:5	.	.	31.341	.	guitar	2G 2b 2dd
=19	=19	=19	=19	=19	=19	=19	=19
2IV	A:5	.	.	32.24	.	guitar	1A 1cc# 1ee
4-III	G:5	.	.	33.139	.	guitar	4G 4b 4dd
4IV	A:5	.	.	33.589	.	guitar	4A 4cc# 4ee
=20	=20	=20	=20	=20	=20	=20	=20
2IV	A:5	.	.	34.038	.	guitar	1A 1cc# 1ee
2I	E:5	.	.	34.937	.	guitar	2E 2g# 2b
=21	=21	=21	=21	=21	=21	=21	=21
1I	E:5	.	.	35.837	.	guitar	1E 1g# 1b
.	.	.	.	.	.	.	.
.	.	Well,	.	.	.	.	.
.	.	there's	.	.	.	.	.
=22	=22	=22	=22	=22	=22	=22	=22
1I	E:5	too	.	37.635	newline	voice	1E 1g# 1b
.	.	much	.	.	.	.	.
.	.	tra-	.	.	.	.	.
.	.	-ffic,	.	.	.	.	.
.	.	.	.	.	.	.	.
.	.	I	.	.	.	.	.
=23	=23	=23	=23	=23	=23	=23	=23
1I	E:5	.	.	39.402	.	voice	1E 1g# 1b
.	.	can't	.	.	.	.	.
.	.	.	.	.	.	.	.
.	.	pass,	B	.	.	.	.
.	.	_	.	.	.	.	.
.	.	no!	.	.	.	.	.
=24	=24	=24	=24	=24	=24	=24	=24
2I	E:5	.	.	41.169	newline	guitar	1E 1g# 1b
2-III	G:5	.	.	42.057	.	guitar	2G 2b 2dd
=25	=25	=25	=25	=25	=25	=25	=25
2IV	A:5	.	.	42.945	.	guitar	2A 2cc# 2ee
4-III	G:5	.	.	43.833	.	guitar	4G 4b 4dd
.	.	So	.	.	.	.	.
4IV	A:5	I	.	44.278	.	guitar	4A 4cc# 4ee
=26	=26	=26	=26	=26	=26	=26	=26
1I	E:5	tried	.	44.722	newline	voice	1E 1g# 1b
.	.	my	.	.	.	.	.
.	.	best	.	.	.	.	.
.	.	.	.	.	.	.	.
.	.	il-	.	.	.	.	.
=27	=27	=27	=27	=27	=27	=27	=27
1I	E:5	-le-	.	46.504	.	voice	1E 1g# 1b
.	.	-gal	.	.	.	.	.
.	.	_	.	.	.	.	.
.	.	move,	C	.	.	.	.
.	.	_	.	.	.	.	.
.	.	well	.	.	.	.	.
.	.	ba-	.	.	.	.	.
.	.	-by,	.	.	.	.	.
=28	=28	=28	=28	=28	=28	=28	=28
1-III	G:5	black	.	48.287	.	voice	1G 1b 1dd
.	.	and	.	.	.	.	.
.	.	white,	.	.	.	.	.
.	.	.	.	.	.	.	.
.	.	come	.	.	.	.	.
.	.	and	.	.	.	.	.
.	.	touched	.	.	.	.	.
=29	=29	=29	=29	=29	=29	=29	=29
1IV	A:5	_	.	50.07	.	voice	1A 1cc# 1ee
.	.	my	.	.	.	.	.
.	.	_	.	.	.	.	.
.	.	groove	C	.	.	.	.
.	.	_	.	.	.	.	.
.	.	a-	.	.	.	.	.
.	.	-gain!	.	.	.	.	.
=30	=30	=30	=30	=30	=30	=30	=30
1V	B:5	_	.	51.853	newline	voice	1B 1dd# 1ff#
=31	=31	=31	=31	=31	=31	=31	=31
1V	B:5	_	.	53.649	.	voice	1B 1dd# 1ff#
.	.	.	.	.	.	.	.
.	.	.	.	.	.	.	.
.	.	.	.	.	.	.	.
.	.	I'm	.	.	.	.	.
.	.	gon-	.	.	.	.	.
.	.	-na	.	.	.	.	.
=32	=32	=32	=32	=32	=32	=32	=32
*>Letter>D	*>Letter>D	*>Letter>D	*>Letter>D	*>Letter>D	*>Letter>D	*>Letter>D	*>Letter>D
*>Label>Chorus	*>Label>Chorus	*>Label>Chorus	*>Label>Chorus	*>Label>Chorus	*>Label>Chorus	*>Label>Chorus	*>Label>Chorus
1IV	A:5	write	.	55.445	newline	voice	1A 1cc# 1ee
.	.	me	.	.	.	.	.
.	.	up	.	.	.	.	.
.	.	a	.	.	.	.	.
.	.	one	.	.	.	.	.
=33	=33	=33	=33	=33	=33	=33	=33
1IV	A:5	.	.	57.25	.	voice	1A 1cc# 1ee
.	.	twen-	.	.	.	.	.
.	.	-ty	.	.	.	.	.
.	.	five,	D	.	.	.	.
.	.	.	.	.	.	.	.
=34	=34	=34	=34	=34	=34	=34	=34
1I	E:5	post	.	59.056	.	voice	1E 1g# 1b
.	.	my	.	.	.	.	.
.	.	face	.	.	.	.	.
.	.	wan-	.	.	.	.	.
.	.	-ted	.	.	.	.	.
=35	=35	=35	=35	=35	=35	=35	=35
1I	E:5	dead	.	60.861	.	voice	1E 1g# 1b
.	.	or	.	.	.	.	.
.	.	a-	.	.	.	.	.
.	.	-live,	D	.	.	.	.
.	.	.	.	.	.	.	.
=36	=36	=36	=36	=36	=36	=36	=36
1IV	A:5	take	.	62.667	newline	voice	1A 1cc# 1ee
.	.	my	.	.	.	.	.
.	.	li-	.	.	.	.	.
.	.	-cense,	.	.	.	.	.
.	.	.	.	.	.	.	.
.	.	all	.	.	.	.	.
=37	=37	=37	=37	=37	=37	=37	=37
1IV	A:5	_	.	64.47	.	voice	1A 1cc# 1ee
.	.	that	.	.	.	.	.
.	.	_	.	.	.	.	.
.	.	jive,	.	.	.	.	.
.	.	.	.	.	.	.	.
.	.	.	.	.	.	.	.
.	.	I	.	.	.	.	.
=38	=38	=38	=38	=38	=38	=38	=38
1V	B:5	.	.	66.274	.	voice	1B 1dd# 1ff#
.	.	can't	.	.	.	.	.
.	.	.	.	.	.	.	.
.	.	drive	D	.	.	.	.
=39	=39	=39	=39	=39	=39	=39	=39
1V	B:5	_	.	68.078	.	voice	1B 1dd# 1ff#
.	.	.	.	.	.	.	.
.	.	fif-	.	.	.	.	.
.	.	-ty	.	.	.	.	.
.	.	five!	D	.	.	.	.
=40	=40	=40	=40	=40	=40	=40	=40
*>Letter>B	*>Letter>B	*>Letter>B	*>Letter>B	*>Letter>B	*>Letter>B	*>Letter>B	*>Letter>B
*>Label>Interlude	*>Label>Interlude	*>Label>Interlude	*>Label>Interlude	*>Label>Interlude	*>Label>Interlude	*>Label>Interlude	*>Label>Interlude
2r	N	_	.	69.882	newline	guitar	2r
.	.	.	.	.	.	.	.
.	.	.	.	.	.	.	.
2I	E:5	.	.	70.771	.	guitar	2E 2g# 2b
=41	=41	=41	=41	=41	=41	=41	=41
2.IV	A:5	.	.	71.661	.	guitar	1A 1cc# 1ee
4I	E:5	.	.	72.996	.	guitar	4E 4g# 4b
=42	=42	=42	=42	=42	=42	=42	=42
1I	E:5	.	.	73.441	.	guitar	1E 1g# 1b
.	.	.	.	.	.	.	.
.	.	Oh,	.	.	.	.	.
.	.	_	.	.	.	.	.
.	.	no!	.	.	.	.	.
=43	=43	=43	=43	=43	=43	=43	=43
2I	E:5	_	.	75.22	.	guitar	2E 2g# 2b
.	.	.	.	.	.	.	.
4-III	G:5	.	.	76.11	.	guitar	2G 2b 2dd
4IV	A:5	.	.	76.555	.	guitar	4A 4cc# 4ee
=44	=44	=44	=44	=44	=44	=44	=44
1I	E:5	Uh!	.	77	newline	guitar	1E 1g# 1b
.	.	.	.	.	.	.	.
.	.	.	.	.	.	.	.
=45	=45	=45	=45	=45	=45	=45	=45
2.IV	A:5	.	.	78.787	.	guitar	1A 1cc# 1ee
4I	E:5	.	.	80.127	.	guitar	4E 4g# 4b
=46	=46	=46	=46	=46	=46	=46	=46
1I	E:5	.	.	80.573	newline	guitar	1E 1g# 1b
=47	=47	=47	=47	=47	=47	=47	=47
2I	E:5	.	.	82.359	.	guitar	1E 1g# 1b
4-III	G:5	.	.	83.252	.	guitar	4G 4b 4dd
4IV	A:5	.	.	83.698	.	guitar	4A 4cc# 4ee
=48	=48	=48	=48	=48	=48	=48	=48
2IV	A:5	.	.	84.145	.	guitar	1A 1cc# 1ee
2I	E:5	.	.	85.038	.	guitar	2E 2g# 2b
=49	=49	=49	=49	=49	=49	=49	=49
1I	E:5	.	.	85.931	.	guitar	1E 1g# 1b
=50	=50	=50	=50	=50	=50	=50	=50
1I	E:5	.	.	87.717	newline	guitar	1E 1g# 1b
=51	=51	=51	=51	=51	=51	=51	=51
1I	E:5	.	.	89.513	.	guitar	1E 1g# 1b
.	.	.	.	.	.	.	.
.	.	So	.	.	.	.	.
.	.	I	.	.	.	.	.
=52	=52	=52	=52	=52	=52	=52	=52
*>Letter>C	*>Letter>C	*>Letter>C	*>Letter>C	*>Letter>C	*>Letter>C	*>Letter>C	*>Letter>C
*>Label>Verse	*>Label>Verse	*>Label>Verse	*>Label>Verse	*>Label>Verse	*>Label>Verse	*>Label>Verse	*>Label>Verse
1I	E:5	signed	.	91.31	newline	voice	1E 1g# 1b
.	.	my	.	.	.	.	.
.	.	name	.	.	.	.	.
.	.	on	.	.	.	.	.
.	.	num-	.	.	.	.	.
.	.	-ber	.	.	.	.	.
=53	=53	=53	=53	=53	=53	=53	=53
1I	E:5	.	.	93.08	.	voice	1E 1g# 1b
.	.	twen-	.	.	.	.	.
.	.	-ty	.	.	.	.	.
.	.	four,	E	.	.	.	.
.	.	_	.	.	.	.	.
.	.	hey!	.	.	.	.	.
=54	=54	=54	=54	=54	=54	=54	=54
2I	E:5	.	.	94.85	newline	guitar	1E 1g# 1b
2-III	G:5	.	.	95.76	.	guitar	2G 2b 2dd
=55	=55	=55	=55	=55	=55	=55	=55
2IV	A:5	.	.	96.669	.	guitar	1A 1cc# 1ee
4-III	G:5	.	.	97.578	.	guitar	4G 4b 4dd
4IV	A:5	.	.	98.032	.	guitar	4A 4cc# 4ee
=56	=56	=56	=56	=56	=56	=56	=56
2IV	A:5	.	.	98.487	.	guitar	1A 1cc# 1ee
2I	E:5	.	.	99.396	.	guitar	2E 2g# 2b
=57	=57	=57	=57	=57	=57	=57	=57
1I	E:5	.	.	100.305	.	guitar	1E 1g# 1b
.	.	.	.	.	.	.	.
.	.	Yeah	.	.	.	.	.
.	.	the	.	.	.	.	.
.	.	judge	.	.	.	.	.
=58	=58	=58	=58	=58	=58	=58	=58
1I	E:5	_	.	102.124	newline	voice	1E 1g# 1b
.	.	said,	.	.	.	.	.
.	.	boy,	.	.	.	.	.
.	.	just	.	.	.	.	.
=59	=59	=59	=59	=59	=59	=59	=59
1I	E:5	_	.	103.852	.	voice	1E 1g# 1b
.	.	_	.	.	.	.	.
.	.	one	.	.	.	.	.
.	.	_	.	.	.	.	.
.	.	more...	E	.	.	.	.
.	.	_	.	.	.	.	.
.	.	huh!	.	.	.	.	.
=60	=60	=60	=60	=60	=60	=60	=60
2I	E:5	.	.	105.581	newline	guitar	1E 1g# 1b
2-III	G:5	.	.	106.487	.	guitar	2G 2b 2dd
=61	=61	=61	=61	=61	=61	=61	=61
2IV	A:5	.	.	107.392	.	guitar	2A 2cc# 2ee
4-III	G:5	.	.	108.298	.	guitar	4G 4b 4dd
.	.	We're	.	.	.	.	.
4IV	A:5	gon-	.	108.751	.	guitar	4A 4cc# 4ee
.	.	-na	.	.	.	.	.
=62	=62	=62	=62	=62	=62	=62	=62
1I	E:5	throw	.	109.203	newline	voice	1E 1g# 1b
.	.	your	.	.	.	.	.
.	.	ass	.	.	.	.	.
.	.	in	.	.	.	.	.
.	.	the	.	.	.	.	.
=63	=63	=63	=63	=63	=63	=63	=63
1I	E:5	.	.	111.005	.	voice	1E 1g# 1b
.	.	ci-	.	.	.	.	.
.	.	-ty	.	.	.	.	.
.	.	_	.	.	.	.	.
.	.	joint	F	.	.	.	.
.	.	.	.	.	.	.	.
.	.	.	.	.	.	.	.
.	.	Looked	.	.	.	.	.
=64	=64	=64	=64	=64	=64	=64	=64
1-III	G:5	_	.	112.807	.	voice	1G 1b 1dd
.	.	me	.	.	.	.	.
.	.	in	.	.	.	.	.
.	.	the	.	.	.	.	.
.	.	eye,	.	.	.	.	.
.	.	said	.	.	.	.	.
=65	=65	=65	=65	=65	=65	=65	=65
1IV	A:5	.	.	114.608	.	voice	1A 1cc# 1ee
.	.	you	.	.	.	.	.
.	.	get	.	.	.	.	.
.	.	my	.	.	.	.	.
.	.	point?	F	.	.	.	.
.	.	I	.	.	.	.	.
.	.	said,	.	.	.	.	.
.	.	yeah	.	.	.	.	.
=66	=66	=66	=66	=66	=66	=66	=66
1V	B:5	_	.	116.41	newline	voice	1B 1dd# 1ff#
=67	=67	=67	=67	=67	=67	=67	=67
1V	B:5	oh,	.	118.197	.	voice	1B 1dd# 1ff#
.	.	yeah!	.	.	.	.	.
.	.	.	.	.	.	.	.
=68	=68	=68	=68	=68	=68	=68	=68
*>Letter>D	*>Letter>D	*>Letter>D	*>Letter>D	*>Letter>D	*>Letter>D	*>Letter>D	*>Letter>D
*>Label>Chorus	*>Label>Chorus	*>Label>Chorus	*>Label>Chorus	*>Label>Chorus	*>Label>Chorus	*>Label>Chorus	*>Label>Chorus
1IV	A:5	Write	.	119.984	newline	voice	1A 1cc# 1ee
.	.	me	.	.	.	.	.
.	.	up	.	.	.	.	.
.	.	a	.	.	.	.	.
.	.	one	.	.	.	.	.
=69	=69	=69	=69	=69	=69	=69	=69
1IV	A:5	.	.	121.765	.	voice	1A 1cc# 1ee
.	.	twen-	.	.	.	.	.
.	.	-ty	.	.	.	.	.
.	.	five,	D	.	.	.	.
.	.	.	.	.	.	.	.
=70	=70	=70	=70	=70	=70	=70	=70
1I	E:5	post	.	123.545	.	voice	1E 1g# 1b
.	.	my	.	.	.	.	.
.	.	face	.	.	.	.	.
.	.	wan-	.	.	.	.	.
.	.	-ted	.	.	.	.	.
=71	=71	=71	=71	=71	=71	=71	=71
1I	E:5	dead	.	125.326	.	voice	1E 1g# 1b
.	.	or	.	.	.	.	.
.	.	a-	.	.	.	.	.
.	.	-live.	D	.	.	.	.
.	.	.	.	.	.	.	.
=72	=72	=72	=72	=72	=72	=72	=72
1IV	A:5	Take	.	127.107	newline	voice	1A 1cc# 1ee
.	.	my	.	.	.	.	.
.	.	li-	.	.	.	.	.
.	.	-cense,	.	.	.	.	.
.	.	.	.	.	.	.	.
.	.	all	.	.	.	.	.
=73	=73	=73	=73	=73	=73	=73	=73
1IV	A:5	_	.	128.919	.	voice	1A 1cc# 1ee
.	.	that	.	.	.	.	.
.	.	_	.	.	.	.	.
.	.	jive,	D	.	.	.	.
.	.	_	.	.	.	.	.
.	.	.	.	.	.	.	.
.	.	.	.	.	.	.	.
.	.	I	.	.	.	.	.
=74	=74	=74	=74	=74	=74	=74	=74
1V	B:5	.	.	130.73	.	voice	1B 1dd# 1ff#
.	.	can't	.	.	.	.	.
.	.	.	.	.	.	.	.
.	.	drive	D	.	.	.	.
=75	=75	=75	=75	=75	=75	=75	=75
1V	B:5	_	.	132.542	.	voice	1B 1dd# 1ff#
.	.	.	.	.	.	.	.
.	.	fif-	.	.	.	.	.
.	.	-ty	.	.	.	.	.
.	.	five!	D	.	.	.	.
=76	=76	=76	=76	=76	=76	=76	=76
*>Letter>E	*>Letter>E	*>Letter>E	*>Letter>E	*>Letter>E	*>Letter>E	*>Letter>E	*>Letter>E
*>Label>Bridge	*>Label>Bridge	*>Label>Bridge	*>Label>Bridge	*>Label>Bridge	*>Label>Bridge	*>Label>Bridge	*>Label>Bridge
1I	E:5	_	.	134.354	newline	voice	1E 1g# 1b
=77	=77	=77	=77	=77	=77	=77	=77
2.IV	A:5	_	.	136.13	.	voice	2.A 2.cc# 2.ee
.	.	_	.	.	.	.	.
.	.	Oh,	.	.	.	.	.
4I	E:5	yeah!	.	137.462	.	voice	4E 4g# 4b
=78	=78	=78	=78	=78	=78	=78	=78
1-VII	D:5	.	.	137.907	.	voice	1D 1f# 1a
.	.	I	.	.	.	.	.
.	.	can't	.	.	.	.	.
=79	=79	=79	=79	=79	=79	=79	=79
1-VII	D:5	drive	D	139.683	.	voice	1D 1f# 1a
.	.	.	.	.	.	.	.
.	.	fif-	.	.	.	.	.
.	.	-ty	.	.	.	.	.
.	.	five!	D	.	.	.	.
=80	=80	=80	=80	=80	=80	=80	=80
1I	E:5	_	.	141.459	newline	voice	1E 1g# 1b
.	.	_	.	.	.	.	.
.	.	.	.	.	.	.	.
.	.	.	.	.	.	.	.
=81	=81	=81	=81	=81	=81	=81	=81
1I	E:5	.	.	143.229	.	voice	1E 1g# 1b
=82	=82	=82	=82	=82	=82	=82	=82
1-VII	D:5	.	.	144.999	.	voice	1D 1f# 1a
.	.	I	.	.	.	.	.
.	.	can't	.	.	.	.	.
=83	=83	=83	=83	=83	=83	=83	=83
1-VII	D:5	drive	D	146.769	.	voice	1D 1f# 1a
.	.	.	.	.	.	.	.
.	.	fif-	.	.	.	.	.
.	.	-ty	.	.	.	.	.
.	.	five!	D	.	.	.	.
=84	=84	=84	=84	=84	=84	=84	=84
1I	E:5	_	.	148.54	newline	voice	1E 1g# 1b
.	.	_	.	.	.	.	.
.	.	.	.	.	.	.	.
.	.	.	.	.	.	.	.
=85	=85	=85	=85	=85	=85	=85	=85
1I	E:5	.	.	150.339	.	voice	1E 1g# 1b
=86	=86	=86	=86	=86	=86	=86	=86
1-VII	D:5	.	.	152.138	.	voice	1D 1f# 1a
.	.	I	.	.	.	.	.
.	.	can't	.	.	.	.	.
=87	=87	=87	=87	=87	=87	=87	=87
1-VII	D:5	drive	D	153.938	.	voice	1D 1f# 1a
.	.	.	.	.	.	.	.
.	.	fif-	.	.	.	.	.
.	.	-ty	.	.	.	.	.
.	.	five!	D	.	.	.	.
=88	=88	=88	=88	=88	=88	=88	=88
1I	E:5	_	.	155.737	newline	voice	1E 1g# 1b
.	.	_	.	.	.	.	.
.	.	.	.	.	.	.	.
.	.	.	.	.	.	.	.
=89	=89	=89	=89	=89	=89	=89	=89
1I	E:5	.	.	157.507	.	voice	1E 1g# 1b
=90	=90	=90	=90	=90	=90	=90	=90
1-VII	D:5	.	.	159.278	.	voice	1D 1f# 1a
.	.	I	.	.	.	.	.
.	.	can't	.	.	.	.	.
=91	=91	=91	=91	=91	=91	=91	=91
1-VII	D:5	drive	D	161.048	.	voice	1D 1f# 1a
.	.	.	.	.	.	.	.
.	.	fif-	.	.	.	.	.
.	.	-ty	.	.	.	.	.
.	.	five!	D	.	.	.	.
=92	=92	=92	=92	=92	=92	=92	=92
2.I	E:5	_	.	162.818	newline	guitar	2.E 2.g# 2.b
4-III	G:5	.	.	164.2	.	guitar	4G 4b 4dd
=93	=93	=93	=93	=93	=93	=93	=93
1I	E:5	.	.	164.66	.	guitar	1E 1g# 1b
=94	=94	=94	=94	=94	=94	=94	=94
2.I	E:5	.	.	166.502	.	guitar	1E 1g# 1b
4-III	G:5	.	.	167.884	.	guitar	4G 4b 4dd
=95	=95	=95	=95	=95	=95	=95	=95
2I	E:5	.	.	168.344	.	guitar	2E 2g# 2b
2-VII	D:5	.	.	169.265	.	guitar	2D 2f# 2a
.	.	Uh!	.	.	.	.	.
=96	=96	=96	=96	=96	=96	=96	=96
1I	E:5	.	.	170.186	newline	guitar	1E 1g# 1b
=97	=97	=97	=97	=97	=97	=97	=97
1I	E:5	.	.	171.983	.	guitar	1E 1g# 1b
=98	=98	=98	=98	=98	=98	=98	=98
1I	E:5	.	.	173.779	.	guitar	1E 1g# 1b
=99	=99	=99	=99	=99	=99	=99	=99
1I	E:5	.	.	175.575	.	guitar	1E 1g# 1b
.	.	.	.	.	.	.	.
.	.	When	.	.	.	.	.
.	.	I	.	.	.	.	.
=100	=100	=100	=100	=100	=100	=100	=100
*>Letter>C2	*>Letter>C2	*>Letter>C2	*>Letter>C2	*>Letter>C2	*>Letter>C2	*>Letter>C2	*>Letter>C2
*>Label>Verse	*>Label>Verse	*>Label>Verse	*>Label>Verse	*>Label>Verse	*>Label>Verse	*>Label>Verse	*>Label>Verse
1I	E:5	drive	.	177.371	newline	voice	1E 1g# 1b
.	.	that	.	.	.	.	.
.	.	slow,	.	.	.	.	.
.	.	you	.	.	.	.	.
.	.	know	.	.	.	.	.
.	.	it's	.	.	.	.	.
=101	=101	=101	=101	=101	=101	=101	=101
1I	E:5	hard	.	179.144	.	voice	1E 1g# 1b
.	.	to	.	.	.	.	.
.	.	steer.	G	.	.	.	.
.	.	_	.	.	.	.	.
.	.	.	.	.	.	.	.
=102	=102	=102	=102	=102	=102	=102	=102
2I	E:5	.	.	180.918	newline	guitar	1E 1g# 1b
2-III	G:5	.	.	181.838	.	guitar	2G 2b 2dd
=103	=103	=103	=103	=103	=103	=103	=103
2IV	A:5	.	.	182.758	.	guitar	2A 2cc# 2ee
4-III	G:5	.	.	183.678	.	guitar	4G 4b 4dd
.	.	And	.	.	.	.	.
4IV	A:5	I	.	184.139	.	guitar	4A 4cc# 4ee
.	.	can't	.	.	.	.	.
=104	=104	=104	=104	=104	=104	=104	=104
1I	E:5	_	.	184.599	newline	voice	1E 1g# 1b
.	.	get	.	.	.	.	.
.	.	my	.	.	.	.	.
.	.	car	.	.	.	.	.
.	.	out	.	.	.	.	.
.	.	of	.	.	.	.	.
=105	=105	=105	=105	=105	=105	=105	=105
1I	E:5	.	.	186.384	.	voice	1E 1g# 1b
.	.	se-	.	.	.	.	.
.	.	-cond	.	.	.	.	.
.	.	gear	G	.	.	.	.
.	.	_	.	.	.	.	.
.	.	.	.	.	.	.	.
=106	=106	=106	=106	=106	=106	=106	=106
2I	E:5	.	.	188.17	newline	guitar	1E 1g# 1b
2-III	G:5	.	.	189.077	.	guitar	2G 2b 2dd
=107	=107	=107	=107	=107	=107	=107	=107
2IV	A:5	.	.	189.985	.	guitar	2A 2cc# 2ee
4-III	G:5	.	.	190.892	.	guitar	4G 4b 4dd
.	.	What	.	.	.	.	.
4IV	A:5	used	.	191.346	.	guitar	4A 4cc# 4ee
.	.	to	.	.	.	.	.
=108	=108	=108	=108	=108	=108	=108	=108
1I	E:5	take	.	191.8	newline	voice	1E 1g# 1b
.	.	two	.	.	.	.	.
.	.	ho-	.	.	.	.	.
.	.	-urs	.	.	.	.	.
.	.	.	.	.	.	.	.
.	.	now	.	.	.	.	.
=109	=109	=109	=109	=109	=109	=109	=109
1I	E:5	_	.	193.604	.	voice	1E 1g# 1b
.	.	takes	.	.	.	.	.
.	.	all	.	.	.	.	.
.	.	day	A	.	.	.	.
.	.	_	.	.	.	.	.
.	.	.	.	.	.	.	.
=110	=110	=110	=110	=110	=110	=110	=110
1-III	G:5	.	.	195.408	.	voice	1G 1b 1dd
.	.	.	.	.	.	.	.
.	.	It	.	.	.	.	.
.	.	took	.	.	.	.	.
.	.	me	.	.	.	.	.
=111	=111	=111	=111	=111	=111	=111	=111
1IV	A:5	six-	.	197.212	.	voice	1A 1cc# 1ee
.	.	-teen	.	.	.	.	.
.	.	ho-	.	.	.	.	.
.	.	-urs	.	.	.	.	.
.	.	to	.	.	.	.	.
.	.	get	.	.	.	.	.
=112	=112	=112	=112	=112	=112	=112	=112
1V	B:5	_	.	199.017	newline	voice	1B 1dd# 1ff#
.	.	to	.	.	.	.	.
.	.	L	.	.	.	.	.
.	.	A!	A	.	.	.	.
.	.	_	.	.	.	.	.
=113	=113	=113	=113	=113	=113	=113	=113
1V	B:5	_	.	200.835	.	voice	1B 1dd# 1ff#
.	.	.	.	.	.	.	.
.	.	Go	.	.	.	.	.
.	.	on	.	.	.	.	.
.	.	and	.	.	.	.	.
=114	=114	=114	=114	=114	=114	=114	=114
*>Letter>D	*>Letter>D	*>Letter>D	*>Letter>D	*>Letter>D	*>Letter>D	*>Letter>D	*>Letter>D
*>Label>Chorus	*>Label>Chorus	*>Label>Chorus	*>Label>Chorus	*>Label>Chorus	*>Label>Chorus	*>Label>Chorus	*>Label>Chorus
1IV	A:5	write	.	202.652	newline	voice	1A 1cc# 1ee
.	.	me	.	.	.	.	.
.	.	up	.	.	.	.	.
.	.	a	.	.	.	.	.
.	.	one	.	.	.	.	.
=115	=115	=115	=115	=115	=115	=115	=115
1IV	A:5	.	.	204.455	.	voice	1A 1cc# 1ee
.	.	twen-	.	.	.	.	.
.	.	-ty	.	.	.	.	.
.	.	five,	D	.	.	.	.
.	.	.	.	.	.	.	.
=116	=116	=116	=116	=116	=116	=116	=116
1I	E:5	post	.	206.257	.	voice	1E 1g# 1b
.	.	my	.	.	.	.	.
.	.	face	.	.	.	.	.
.	.	want-	.	.	.	.	.
.	.	-ed	.	.	.	.	.
=117	=117	=117	=117	=117	=117	=117	=117
1I	E:5	dead	.	208.06	.	voice	1E 1g# 1b
.	.	or	.	.	.	.	.
.	.	a-	.	.	.	.	.
.	.	-live.	D	.	.	.	.
.	.	.	.	.	.	.	.
=118	=118	=118	=118	=118	=118	=118	=118
1IV	A:5	Take	.	209.862	newline	voice	1A 1cc# 1ee
.	.	my	.	.	.	.	.
.	.	li-	.	.	.	.	.
.	.	-cense	.	.	.	.	.
.	.	n-	.	.	.	.	.
.	.	-all	.	.	.	.	.
=119	=119	=119	=119	=119	=119	=119	=119
1IV	A:5	_	.	211.667	.	voice	1A 1cc# 1ee
.	.	that	.	.	.	.	.
.	.	_	.	.	.	.	.
.	.	jive	D	.	.	.	.
.	.	_	.	.	.	.	.
.	.	.	.	.	.	.	.
.	.	.	.	.	.	.	.
.	.	I	.	.	.	.	.
=120	=120	=120	=120	=120	=120	=120	=120
1V	B:5	.	.	213.472	.	voice	1B 1dd# 1ff#
.	.	can't	.	.	.	.	.
.	.	.	.	.	.	.	.
.	.	drive	D	.	.	.	.
=121	=121	=121	=121	=121	=121	=121	=121
1V	B:5	_	.	215.276	.	voice	1B 1dd# 1ff#
.	.	.	.	.	.	.	.
.	.	fif-	.	.	.	.	.
.	.	-ty	.	.	.	.	.
.	.	five!	D	.	.	.	.
=122	=122	=122	=122	=122	=122	=122	=122
*>Letter>B2	*>Letter>B2	*>Letter>B2	*>Letter>B2	*>Letter>B2	*>Letter>B2	*>Letter>B2	*>Letter>B2
*>Label>Outro	*>Label>Outro	*>Label>Outro	*>Label>Outro	*>Label>Outro	*>Label>Outro	*>Label>Outro	*>Label>Outro
1I	E:5	_	.	217.081	newline	guitar	1E 1g# 1b
=123	=123	=123	=123	=123	=123	=123	=123
2.IV	A:5	_	.	218.86	.	guitar	1A 1cc# 1ee
.	.	.	.	.	.	.	.
.	.	.	.	.	.	.	.
4I	E:5	.	.	220.195	.	guitar	4E 4g# 4b
=124	=124	=124	=124	=124	=124	=124	=124
1I	E:5	.	.	220.639	.	guitar	1E 1g# 1b
.	.	.	.	.	.	.	.
.	.	No,	.	.	.	.	.
.	.	_	.	.	.	.	.
.	.	no,	.	.	.	.	.
=125	=125	=125	=125	=125	=125	=125	=125
2I	E:5	_	.	222.418	.	guitar	2E 2g# 2b
.	.	no,	.	.	.	.	.
.	.	_	.	.	.	.	.
.	.	I	.	.	.	.	.
4-III	G:5	_	.	223.308	.	guitar	4G 4b 4dd
.	.	can't	.	.	.	.	.
4IV	A:5	_	.	223.753	.	guitar	4A 4cc# 4ee
.	.	drive!	D	.	.	.	.
=126	=126	=126	=126	=126	=126	=126	=126
1I	E:5	_	.	224.197	newline	voice	1E 1g# 1b
.	.	.	.	.	.	.	.
.	.	.	.	.	.	.	.
.	.	I	.	.	.	.	.
.	.	can't	.	.	.	.	.
=127	=127	=127	=127	=127	=127	=127	=127
2.IV	A:5	drive	D	225.988	.	voice	2.A 2.cc# 2.ee
.	.	.	.	.	.	.	.
.	.	fif-	.	.	.	.	.
4I	E:5	-ty	.	227.331	.	voice	4E 4g# 4b
.	.	five!	D	.	.	.	.
=128	=128	=128	=128	=128	=128	=128	=128
1I	E:5	_	.	227.779	.	voice	1E 1g# 1b
.	.	.	.	.	.	.	.
.	.	.	.	.	.	.	.
=129	=129	=129	=129	=129	=129	=129	=129
2I	E:5	.	.	229.57	.	voice	2E 2g# 2b
.	.	.	.	.	.	.	.
.	.	I	.	.	.	.	.
4-III	G:5	_	.	230.465	.	voice	4G 4b 4dd
.	.	can't	.	.	.	.	.
4IV	A:5	_	.	230.913	.	voice	4A 4cc# 4ee
.	.	drive	D	.	.	.	.
=130	=130	=130	=130	=130	=130	=130	=130
*>Label>>Fadeout	*>Label>>Fadeout	*>Label>>Fadeout	*>Label>>Fadeout	*>Label>>Fadeout	*>Label>>Fadeout	*>Label>>Fadeout	*>Label>>Fadeout
1I	E:5	.	.	231.361	newline	voice	1E 1g# 1b
.	.	.	.	.	.	.	.
.	.	.	.	.	.	.	.
.	.	I	.	.	.	.	.
.	.	can't	.	.	.	.	.
=131	=131	=131	=131	=131	=131	=131	=131
2.IV	A:5	drive	D	233.146	.	voice	2.A 2.cc# 2.ee
.	.	.	.	.	.	.	.
.	.	fif-	.	.	.	.	.
4I	E:5	-ty	.	234.486	.	voice	4E 4g# 4b
.	.	five!	D	.	.	.	.
=132	=132	=132	=132	=132	=132	=132	=132
1I	E:5	_	.	234.932	.	voice	1E 1g# 1b
.	.	.	.	.	.	.	.
.	.	.	.	.	.	.	.
=133	=133	=133	=133	=133	=133	=133	=133
2I	E:5	.	.	236.718	.	voice	1E 1g# 1b
4-III	G:5	.	.	237.611	.	voice	4G 4b 4dd
4IV	A:5	.	.	238.057	.	voice	4A 4cc# 4ee
=134	=134	=134	=134	=134	=134	=134	=134
1I	E:5	.	.	238.503	newline	voice	1E 1g# 1b
.	.	I	.	.	.	.	.
.	.	can't	.	.	.	.	.
=135	=135	=135	=135	=135	=135	=135	=135
2.IV	A:5	drive	D	240.297	.	voice	2.A 2.cc# 2.ee
.	.	.	.	.	.	.	.
.	.	fif-	.	.	.	.	.
4I	E:5	-ty	.	241.641	.	voice	4E 4g# 4b
.	.	five!	D	.	.	.	.
=136	=136	=136	=136	=136	=136	=136	=136
1I	E:5	_	.	242.09	.	voice	1E 1g# 1b
.	.	.	.	.	.	.	.
.	.	.	.	.	.	.	.
=137	=137	=137	=137	=137	=137	=137	=137
2I	E:5	.	.	243.883	.	voice	1E 1g# 1b
4-III	G:5	.	.	244.779	.	voice	4G 4b 4dd
4IV	A:5	.	.	245.228	.	voice	4A 4cc# 4ee
=138	=138	=138	=138	=138	=138	=138	=138
1I	E:5	.	.	245.676	newline	voice	1E 1g# 1b
.	.	I	.	.	.	.	.
.	.	can't	.	.	.	.	.
=139	=139	=139	=139	=139	=139	=139	=139
2.IV	A:5	drive	D	246.272	.	voice	2.A 2.cc# 2.ee
.	.	.	.	.	.	.	.
.	.	fif-	.	.	.	.	.
4I	E:5	-ty	.	246.718	.	voice	4E 4g# 4b
.	.	five!	D	.	.	.	.
=140	=140	=140	=140	=140	=140	=140	=140
1I	E:5	_	.	246.867	.	voice	1E 1g# 1b
.	.	.	.	.	.	.	.
.	.	.	.	.	.	.	.
=141	=141	=141	=141	=141	=141	=141	=141
2I	E:5	.	.	247.463	.	voice	1E 1g# 1b
4-III	G:5	.	.	247.761	.	voice	4G 4b 4dd
4IV	A:5	.	.	247.91	.	voice	4A 4cc# 4ee
1r;	N	.	.	248.059	.	r	1r;
1r;	N	.	.	249.966	.	r	1r;
*-	*-	*-	*-	*-	*-	*-	*-
!!!BillboardChartDate: 1984/11/17
!!!BillboardPeak: 26
!!!BillboardWeeksOnChart: 16
!!!COC: Sammy Hagar
!!!ENC: Nathaniel Condit-Schultz
!!!EST: Awating manual error checking and editing.
!!!OTL: I Can't Drive 55
!!!RDF**harte: Chris Harte's syntax, used by MIREX
!!!RDF**harmony: **recip + pitch class of root + harmonic quality
!!!RDF**leadinstrument: original McGill primary instrumentation annotation
!!!RDF**phrase: newline = linebreak in original McGill transcription
!!!RDF**timestamp: McGill audio timestamp in seconds
!!!RDT: 2017/01/12/
!!!SampleActualRank: 27
!!!SampleID#: 0353
!!!SampleTargetRank: 27
!!!MBID: 3941acf4-205d-4b5a-881a-c1a350e7f4e4
